X:1
T:[ID 8-90]
T:[ID 8-90]
T:Bezeichnung standardisiert: Walzer Walzer
T:Urheber unbekannt Datum in der hier transkribierten schriftlichen Quelle: 1792
C:Urheber unbekannt
C:Datum in der hier transkribierten schriftlichen Quelle: 1792
L:1/8
M:3/8
K:D
V:1 treble 
V:1
 DFA | DFA | AGG | GFF | DFA | DFA | AGG | F3 :: ege | faf | ege | fdd | ege | faf | ege | d3 :: %16
 A2 G | FFF | EFG | FFF | A2 G | FAd | AAG | F3 :| %24

